X: 34387
T: Ricarda's
R: reel
M: 4/4
K: Gdorian
GF|:"Gm" DGGF G2 G2|BAGB AGFD|"F" C F2 E F2 F2|"Gm" AGFA GFDC|
DGGF G2 G2|BAGB AGAB|dcBA BAGF|"Dm" CBAF "Gm" G2 GF:|
|:"Gm" D GG/G/G D GG/G/G|"Dm" d3 c BAGF|"F" C FF/F/F C FF/F/F|"Dm" A2 A2 GFDC|
"Gm" D GG/G/G D GG/G/G|"Dm" d3 c BAGB|"Gm" dcBA BAGF|1 "Dm" CBAF "Gm" G2 GF:|2 "Dm" CBAF "Gm" G2 G2||

